X:1
T:Title
%%score ( 1 2 ) ( 3 4 )
L:1/8
Q:1/4=80
M:4/4
K:G
V:1 treble nm="Violin, SOPRANO ALTO"
V:2 treble 
V:3 bass nm="Violin, TENOR BASS"
V:4 bass 
V:1
 z4 z [DG]/[DG]/ [DB][Dd] | B6 z2 | B,2 C2 B,[EG]/[FA]/ [GB][EG] | %3
w: 1.~There~ are~ man y~|paths~|sin,~ * * But~ there's~ on ly~|
 B2- [FB-]2 [GB][EG]/[EG]/ [GA][GA] | A2- [^CA-]2 [=CA][DG]/[DG]/ [DB][Dd] | G2 z2 z4 | %6
w: one~ * * I~ shall~ trav el~|in;~ * * 'Tis~ the~ old~ Cross~|Road,~|
 B,2 C2 B,[EG]/[EG]/ [GB][EG] | B2- [^DB-]2 [EB][EG]/[EG]/ [FA][FA] | %8
w: "Straight"�~ * * There~ is~ just~ one~|way~ * * to~ the~ pearl y~|
 G2- [EG-]2 [DG][DG]/[DG]/ [DG][GB] | d2- [Fd-]2 [Gd][ce]/[ce]/ [Gd][GB] | d6 z2 | B6 z2 | A6 z2 | %13
w: gate.~ * * * * * *|||||
 d6 z2 | d6 z2 | B6 z2 | G6 z2 |] %17
w: ||||
V:2
 x8 | G2 F2 G[DB]/[DA]/ [EG][B,E] | D6 z2 | E2 z2 z4 | D2 z2 z4 | %5
w: |* * * through~ this~ * of~||||
 B2- [FB-]2 [GB][DB]/[DA]/ [EG][B,E] | D6 z2 | E2 z2 z4 | D2 z2 z4 | G2 z2 z4 | %10
w: * * * or~ the~ way~ called~|||||
 D2 C2 D[EG]/[EG]/ [GB][EG] | G2 F2 G[EG]/[EG]/ [GA][GB] | D2 ^C2 =C[DG]/[DG]/ [DB][Dd] | %13
w: |||
 G2 F2 G[ce]/[ce]/ [Gd][GB] | G2 F2 G[EG]/[EG]/ [EG][EG] | E2 ^D2 E[EG]/[EG]/ [FA][FA] | %16
w: |||
 D2 E2 .D2 z2 |] %17
w: |
V:3
 z4 z [G,B,]/[G,B,]/ [G,B,][G,B,] | D6 z2 | [G,,G,]2 [A,,F,]2 [G,,G,][E,B,]/[D,B,]/ [E,B,][E,B,] | %3
 [E,E]2 [F,^D]2 [E,E][E,C]/[E,B,]/ [E,^C][E,C] | %4
 [D,F,]2 [E,G,]2 [F,A,][G,B,]/[G,B,]/ [G,B,][G,B,] | D6 z2 | %6
 [G,,G,]2 [A,,F,]2 [G,,G,][E,B,]/[E,B,]/ [E,B,][E,B,] | %7
 [E,G,]2 [F,A,]2 [E,G,][E,B,]/[E,B,]/ [D,B,][D,B,] | %8
 [G,,B,]2 [C,C]2 [G,,B,][G,B,]/[G,B,]/ [G,B,][D,G,] | %9
 [G,,G,]2 [A,,F,]2 [G,,G,][C,G,]/[C,G,]/ [G,,B,][G,,G,] | %10
 [G,,G,]2 [A,,F,]2 [B,,G,][E,B,]/[E,B,]/ [E,B,][E,B,] | %11
 [E,E]2 [F,^D]2 [E,E][E,B,]/[E,B,]/ [E,^C][E,C] | %12
 [D,F,]2 [E,G,]2 [F,A,][G,B,]/[G,B,]/ [D,B,][G,B,] | %13
 [G,,G,]2 [A,,F,]2 [B,,G,][C,C]/[C,C]/ [G,,B,][G,,G,] | %14
 [G,,G,]2 [A,,F,]2 [B,,G,][B,,B,]/[B,,B,]/ [E,B,][E,B,] | %15
 [E,G,]2 [F,A,]2 [E,G,][E,B,]/[E,B,]/ [D,B,][D,B,] | [G,,B,]2 [C,C]2 .[G,,B,]2 z2 |] %17
V:4
 x8 | G,2 A,2 B,[G,B,]/[G,B,]/ [C,C][C,G,] | x8 | x8 | x8 | G,2 A,2 B,[G,B,]/[G,B,]/ [C,C][C,G,] | %6
 x8 | x8 | x8 | x8 | x8 | x8 | x8 | x8 | x8 | x8 | x8 |] %17

